X:1
T:Title
%%score { ( 1 4 ) | ( 2 3 ) }
L:1/8
M:6/8
K:Eb
V:1 treble nm="Grand Piano"
V:4 treble 
V:2 bass 
V:3 bass 
V:1
 z3 z2[Q:1/4=81] E | G2 G GFG | B3 A2 G | [DF]2 [DF] [DF]G[B,FA] |[M:5/8] [B,EG]-[B,EG]- [B,EG]3 | %5
[M:1/8] [EGB] |[M:3/4] [EAc]2 [EAc][ce] d[EAc] |[M:7/8] [EGB]3 [Ge]3 [B,E] | %8
[M:3/4] [A,CF]2 [CEA] [B,EG]2 [A,B,F] |[M:5/8] [G,B,E]-[G,B,E]- [G,B,E]3 |] %10
V:2
 z3 z2 [E,G,] | [E,B,E]2 [E,B,E] [E,E][A,D][G,B,E] | [G,B,E]3 [F,B,D]2 [E,B,E] | %3
 [B,,B,]2 [B,,B,] z EB,, |[M:5/8] E,-E,- E,3 |[M:1/8] E, |[M:3/4] A,2 .A,2[K:treble] B[K:bass]C, | %7
[M:7/8] E,3 [E,B,]3 G,, |[M:3/4] A,,2 A,, B,,2 B,, |[M:5/8] E,-E,- E,3 |] %10
V:3
 x6 | z3 .B,3 | x6 | z3 .[B,,B,]3 |[M:5/8] x5 |[M:1/8] x |[M:3/4] z2 z .A,,3[K:treble][K:bass] | %7
[M:7/8] x7 |[M:3/4] x6 |[M:5/8] x5 |] %10
V:4
 x6 | x6 | x6 | x6 |[M:5/8] x5 |[M:1/8] x |[M:3/4] z2 z .E3 |[M:7/8] x7 |[M:3/4] x6 |[M:5/8] x5 |] %10

